!!!OTL: Wacht auf, ihr Deutschen alle! / (Lied gegen die Tuerken, c. 1529-1549 entstanden.)
!!!ARE: Europa, Mitteleuropa, Deutschland
!!!SCT: A0397
!!!TXL: @@DE
!!!YEM: Copyright 1995, estate of Helmut Schaffrath.
**kern	**text
!! Mixed meters:  4/2; 6/2
*M6/2	*
*met(c)	*
*k[]	*
*G:mix	*
!LO:TX:a:t=mixolyd.	!
2ryy	.
{2g	Wacht
=1	=1
*M4/2	*
2g	auff,
2g	jr
2a	Teüt-
2g	-ſchen
=2	=2
*M6/2	*
1b	al-
1cc	-le,
2r}	.
{2b	die
=3	=3
1a	ʒeit
2g	iſt
1cc	vor
2b	der
=4	=4
*M4/2	*
1cc	hand:
2r}	.
{2cc	Der
=5	=5
2b	Türck
2b	wil
2cc	ü-
2cc	-ber-
=6	=6
*M6/2	*
1dd	-fal-
1dd	-len
2r}	.
{2cc	ʒu
=7	=7
2.b/	ſeer
4a	.
2g	der
2b/	Chri-
1a	-ſten
=8	=8
*M4/2	*
1g	land.
2r}	.
{2g	Jr
=9	=9
2a	habt
2a	auß
2dd	kur-
2cc	-tʒen
=10	=10
*M6/2	*
1b	ja-
1cc	-ren
2r}	.
{2a	weß
=11	=11
*lig	*
2.g	er
4g	.
*Xlig	*
2g	ſich
*lig	*
2.g	hat
4f	.
*Xlig	*
2e	er-
=12	=12
*M4/2	*
1d	-ʒeygt:
2r}	.
{2d	ſein
=13	=13
*M6/2	*
*lig	*
2.a	fleyß
4a	.
*Xlig	*
2a	würt
2.a	er
4b/	.
2cc	nit
=14	=14
1dd	ſpa-
1dd	-ren,
2r}	.
{2cc	keins
=15	=15
2.b/	an-
4a	-dern
2g	iſt
2b/	er
1a	ge-
=16	=16
0g/ll}	-neygt.
==	==
!!!GTL: Einige historisch-politische Lieder
!!!AGN: Romanze, Ballade, Lied, religioeses Lied
!! Wie A0396, Fassung im Hamburger Melodeyenbuch 1604.
!!!ONB: ESAC (Essen Associative Code) Database: ALTDEU
!!!AMT: irregular
!!!AIN: vox
!!!EED: Helmut Schaffrath
!!!EEV: 1.0
!!!RDF**kern: l = terminal long
!!!AMD: Mixolydian
!!!URL-scan: https://rosdok.uni-rostock.de/mcrviewer/recordIdentifier/rosdok_ppn738218359/iview2/phys_0569.iview2?x=-495.6391625615763&y=572.4261083542369&scale=0.4629418472063854&rotation=0&layout=singlePageLayout&logicalDiv=log_0014
!!!ENC: Anna Maria Matuszewska
!!!EEV: 2024/15/03
*-	*-
